X:1
T:Title
%%score { ( 1 3 4 ) | 2 }
L:1/8
Q:1/4=88
M:4/4
K:G
V:1 treble nm="Grand Piano"
V:3 treble 
V:4 treble 
V:2 bass 
V:1
 (3[B,D][B,E][B,F] [B,G]>[CA] B2 d2 | (3[B,D][B,E][B,F] (3[B,-G]B,[G,B,G] [A,CF]4 | %2
w: Chas.~H.~Gabriel * * * * * *||
 (3[F,D][A,DF][B,DG] [CFA]>[B,GB] [Fc]2 [Fe]2 | (3[FA][=F^G][^FA] [Fd]>c B4 | %4
w: ||
 (3[B,D][B,E][B,F] [B,G]>[CA] B2 d2 | (3dBA (3GAB [Ec]4 | %6
w: ||
 (3[EG][^DF][EG] (3[FA]G[G,CE] [G,B,=D]2 B2 |[M:7/8] A/^GA<BA/ [G,B,=G]3 |[M:1/4] (3BAB | %9
w: |||
[M:4/4] [Bd]2 [GB]2 z4 | (3[A,C-F-][A,C-F-][A,C-F-] [CF]4 (3DF[EG] | %11
w: ||
 [FA]2 [GB]2 [Ac]>[Bd] (3[ce][Bd][Ac] | B2 d2 d2 (3BAB |[M:3/4] [Bd]2 [GB]2 z2 |[M:1/4] (3GAB | %15
w: ||||
[M:4/4] [Ec]6[K:bass][K:treble] z2 | D2 B2 (3AAA G>F |[M:3/4] [B,DG]6 |] %18
w: |||
V:2
 (3[G,,G,][G,,G,][G,,G,] [G,,G,]>[G,,G,] [G,D]2 [G,B,D]2 | %1
 (3[G,,G,][G,,G,][G,,G,] (3[G,,G,]-[G,,G,A]G,, D,4 | (3D,D,D, D,>D, [D,A,]2 [D,C]2 | %3
 (3[D,C][D,B,][D,C] [D,A,]>[D,F,D] [G,D]4 | %4
 (3[G,,G,][G,,G,][G,,G,] [G,,G,]>[G,,G,][K:treble] [G,D]2 [G,B,G]2 | %5
 (3[G,B,=F][G,F][G,F] (3:2:2[G,F]2 [G,F][K:bass] [C,G,]4 | %6
 (3[C,C][C,C][C,C] (3[C,C]-[C,CE]C, G,,2 D2 |[M:7/8] [D,F,C]/[D,F,B,][D,F,C]<[D,F,D][D,F,C]/ G,,3 | %8
[M:1/4][K:treble] (3GFG |[M:4/4] (3G,G,[K:bass]G, (3G,G,G, [G,B,D]2 (3B,B,B, | %10
 (3D,D,D, (3D,D,D, D,2 (3[D,F,][D,A,D][D,A,] | [D,D]2 [D,D]2 [D,D]>[D,D] (3[D,D][E,D][F,D] | %12
 [G,DG]2 [G,B,G]2 [G,B,G]2 (3GFG |[M:3/4][K:bass] (3G,G,G, (3G,G,G,[K:treble] [G,B,D]2 | %14
[M:1/4] (3=FFF |[M:4/4][K:bass] (3[C,G,]C,C, (3C,C,C, C,2 (3C,C,[C,G,C] | %16
 [D,G,B,]2 [D,G,D]2 (3[D,CD][D,CD][D,CD] [D,B,D]>[D,A,D] |[M:3/4] G,,6 |] %18
V:3
 x8 | x8 | x8 | x8 | x8 | x8 | x8 |[M:7/8] x7 |[M:1/4] x2 |[M:4/4] (3DDD (3DDD G2 (3AGE | %10
 z2 (3A,A,A, A,2 z2 | x8 | x8 |[M:3/4] (3DDD (3DDD G2 |[M:1/4] x2 | %15
[M:4/4] (3z[K:bass] G,G, z2 z2[K:treble] (3[G,EG][G,DF]E | x8 |[M:3/4] x6 |] %18
V:4
 x8 | x8 | x8 | x8 | x8 | x8 | x8 |[M:7/8] x7 |[M:1/4] x2 |[M:4/4] x8 | x8 | x8 | x8 |[M:3/4] x6 | %14
[M:1/4] x2 |[M:4/4] z2[K:bass] (3G,G,G, G,2[K:treble] z2 | x8 |[M:3/4] x6 |] %18

